svg/fluentui-system-icons/ic_fluent_quiz_new_48_filled.svg

<svg width="48" height="48" viewBox="0 0 48 48" fill="none" xmlns="http://www.w3.org/2000/svg">
<path d="M17.644 19.0181H21.3545L19.4984 14.5241L17.644 19.0181ZM11.25 6C8.3505 6 6 8.35051 6 11.25V36.75C6 39.6495 8.35051 42 11.25 42H24.5187C23.2251 39.9794 22.4751 37.5773 22.4751 35C22.4751 33.4165 22.7582 31.899 23.2766 30.4956H11.25C10.5596 30.4956 10 29.936 10 29.2456C10 28.5553 10.5596 27.9956 11.25 27.9956H24.5215C26.8322 24.3897 30.8745 22 35.4751 22C37.8533 22 40.0823 22.6386 42 23.7536V11.25C42 8.3505 39.6495 6 36.75 6H11.25ZM10 35.25C10 34.5596 10.5596 34 11.25 34H19.2581C19.9484 34 20.5081 34.5596 20.5081 35.25C20.5081 35.9404 19.9484 36.5 19.2581 36.5H11.25C10.5596 36.5 10 35.9404 10 35.25ZM19.4977 9.99829C20.0039 9.99821 20.4601 10.3033 20.6533 10.7711L25.4053 22.2771C25.6688 22.9152 25.3652 23.6461 24.7271 23.9096C24.089 24.1732 23.3581 23.8695 23.0946 23.2315L22.387 21.5181H16.6123L15.9054 23.2311C15.6421 23.8693 14.9113 24.1731 14.2731 23.9098C13.635 23.6465 13.3311 22.9156 13.5945 22.2775L18.3424 10.7715C18.5355 10.3036 18.9916 9.99837 19.4977 9.99829ZM31.7476 9.99811C32.4379 9.99811 32.9976 10.5578 32.9976 11.2481V14H35.7501C36.4405 14 37.0001 14.5596 37.0001 15.25C37.0001 15.9404 36.4405 16.5 35.7501 16.5H32.9976V19.2483C32.9976 19.9386 32.4379 20.4983 31.7476 20.4983C31.0572 20.4983 30.4976 19.9386 30.4976 19.2483V16.5H27.75C27.0596 16.5 26.5 15.9404 26.5 15.25C26.5 14.5596 27.0596 14 27.75 14H30.4976V11.2481C30.4976 10.5578 31.0572 9.99811 31.7476 9.99811ZM46.4751 35C46.4751 41.0751 41.5502 46 35.4751 46C29.4 46 24.4751 41.0751 24.4751 35C24.4751 28.9249 29.4 24 35.4751 24C41.5502 24 46.4751 28.9249 46.4751 35ZM36.4751 28C36.4751 27.4477 36.0274 27 35.4751 27C34.9228 27 34.4751 27.4477 34.4751 28V34H28.4751C27.9228 34 27.4751 34.4477 27.4751 35C27.4751 35.5523 27.9228 36 28.4751 36H34.4751V42C34.4751 42.5523 34.9228 43 35.4751 43C36.0274 43 36.4751 42.5523 36.4751 42V36H42.4751C43.0274 36 43.4751 35.5523 43.4751 35C43.4751 34.4477 43.0274 34 42.4751 34H36.4751V28Z" fill="#212121"/>
</svg>

<svg xmlns="http://www.w3.org/2000/svg" width="48" height="48"><path d="M17.644 19.018h3.71l-1.856-4.494-1.854 4.494ZM11.25 6A5.25 5.25 0 0 0 6 11.25v25.5C6 39.65 8.35 42 11.25 42h13.269a12.94 12.94 0 0 1-2.044-7c0-1.584.283-3.101.802-4.504H11.25a1.25 1.25 0 1 1 0-2.5h13.271A12.99 12.99 0 0 1 35.475 22c2.378 0 4.607.639 6.525 1.754V11.25C42 8.35 39.65 6 36.75 6h-25.5ZM10 35.25c0-.69.56-1.25 1.25-1.25h8.008a1.25 1.25 0 0 1 0 2.5H11.25c-.69 0-1.25-.56-1.25-1.25Zm9.498-25.252c.506 0 .962.305 1.155.773l4.752 11.506a1.25 1.25 0 0 1-2.31.954l-.708-1.713h-5.775l-.707 1.713a1.25 1.25 0 1 1-2.31-.954l4.747-11.506a1.25 1.25 0 0 1 1.156-.773Zm12.25 0c.69 0 1.25.56 1.25 1.25V14h2.752a1.25 1.25 0 1 1 0 2.5h-2.752v2.748a1.25 1.25 0 0 1-2.5 0V16.5H27.75a1.25 1.25 0 1 1 0-2.5h2.748v-2.752c0-.69.56-1.25 1.25-1.25ZM46.475 35c0 6.075-4.925 11-11 11s-11-4.925-11-11 4.925-11 11-11 11 4.925 11 11Zm-10-7a1 1 0 1 0-2 0v6h-6a1 1 0 1 0 0 2h6v6a1 1 0 1 0 2 0v-6h6a1 1 0 1 0 0-2h-6v-6Z"/></svg>
